X:7917
T:Jenny's Chickens
R:Reel
H:Related to the Scottish tune "Sleepy Maggie", #650.
H:Also related to Sean sa Cheo, #313.
H:Cf also "The Gravel Walks", #70.
D:Matt Molloy: Heathery Breeze.
D:Paddy Glackin: In Full Spate.
Z:Some people play it in Bdor (g#), others in Bm (g natural)
Z:This tune is also played in Ador.
Z:id:hn-reel-75
M:C|
L:1/8
Q:1/4=200
K:Bm
|:~f3e fece|fefa eAce|~f3e fece|f2af eAce:|
fBBA B2de|fB~B2 eAce|fBBA Bcde|f2af eAce|
fB~B2 bBaB|fB~B2 ABce|fBBA Bcde|f2af edcA||
|:B2bB aBgB|~B2fB edcA|B2bB aBgB|1 f2af edcA:|2 f2af eAce|]
